X: 607
T: Tie the ribbons
C: anon.
O: Ireland
B: Francis O'Neill: "The Dance Music of Ireland" (1907) no. 607
R: Reel
Z: Transcribed by Frank Nordberg - http://www.musicaviva.com
F: http://www.musicaviva.com/abc/tunes/ireland/oneill-1001/oneill-1001-060
7.abc
M: C
L: 1/8
K: Em
BGEF GBAG|FGAG FDDc|BGEF G2(ef)|gefd Beed|BGEF GBAG|FGAG FDDc|BGEF G2(ef)
|({a}g)efd Beef||
gfga bgeg|fgag fddf|gfga bgef|gefd Beef|gfga bgeg|fgag fd (3(def)|gabg fg
af|gfed Beed|]
W:
W:
W: From Musica Viva - http://www.musicaviva.com
W: the Internet center for free sheet music downloads.


